Sources/FrostedUI/Resources/Icons.xcassets/micOn24.imageset/mic-on-24.svg

<svg width="24" height="24" viewBox="0 0 24 24" fill="none" xmlns="http://www.w3.org/2000/svg" data-fui-icon="true">
  <path
    d="M21.0004 9.75C21.4144 9.75021 21.7504 10.0859 21.7504 10.5C21.7504 15.5139 17.9651 19.6402 13.0968 20.1852C12.902 20.207 12.7504 20.3692 12.7504 20.5653V21.375C12.7504 21.7891 12.4144 22.1248 12.0004 22.125C11.5862 22.125 11.2504 21.7892 11.2504 21.375V20.5653C11.2504 20.3693 11.0988 20.207 10.9039 20.1852C6.03541 19.6404 2.25037 15.514 2.25037 10.5C2.25037 10.0858 2.58615 9.75 3.00037 9.75C3.4144 9.75021 3.75037 10.0859 3.75037 10.5C3.75037 15.0563 7.44402 18.75 12.0004 18.75C16.5565 18.7498 20.2504 15.0562 20.2504 10.5C20.2504 10.0858 20.5862 9.75 21.0004 9.75ZM12.0004 1.5C15.3139 1.50021 18.0004 4.18642 18.0004 7.5V10.5C18.0004 13.8136 15.3139 16.4998 12.0004 16.5C8.79016 16.5 6.1688 13.9789 6.00818 10.8086L6.00037 10.5V7.5C6.00037 4.18629 8.68666 1.5 12.0004 1.5ZM12.0004 3C9.51508 3 7.50037 5.01472 7.50037 7.5V10.5C7.50037 12.9853 9.51509 15 12.0004 15C14.4855 14.9998 16.5004 12.9852 16.5004 10.5V7.5C16.5004 5.01485 14.4855 3.00021 12.0004 3Z"
    fill="currentColor"
  />
</svg>

<svg xmlns="http://www.w3.org/2000/svg" width="24" height="24" fill="none" data-fui-icon="true" viewBox="0 0 24 24"><path fill="currentColor" d="M21 9.75a.75.75 0 0 1 .75.75c0 5.014-3.785 9.14-8.653 9.685a.386.386 0 0 0-.347.38v.81a.75.75 0 0 1-1.5 0v-.81a.386.386 0 0 0-.346-.38C6.035 19.64 2.25 15.514 2.25 10.5a.75.75 0 0 1 1.5 0 8.25 8.25 0 0 0 16.5 0 .75.75 0 0 1 .75-.75M12 1.5a6 6 0 0 1 6 6v3a6 6 0 0 1-11.992.309L6 10.5v-3a6 6 0 0 1 6-6M12 3a4.5 4.5 0 0 0-4.5 4.5v3a4.5 4.5 0 1 0 9 0v-3A4.5 4.5 0 0 0 12 3"/></svg>
